!!!!SEGMENT: pl-gd--ee-1638--003-002_marenzio-luca--madrigali-a-quatro-voci-dissi-a-l-amata-mia.krn
!!!cenid: 15xx:976
!!!COM: Marenzio, Luca
!!!COM-rismID: pe30003955
!!!CDT: ~1553-1599/08/22
!!!CNT: Italian
!!!GTL: Madrigali a quatro voci
!!!OTL: Dissi à l’amata mia
!!!OMV: 002
!!!PDT: 1587
!!!AGN:
!!!SMS-siglum: PL-GD
!!!SMS-shelfmark: Ee 1638
!!!SMS-shelfwork: 003-002 G
!!!SMS-variant:
!!!SMS-altvar:
!!!NIFC-rismSourceID: 990039322
!!!NIFC-islandoraID: pl-gd:57883
!!!URL-pdf-islandora: https://repozytorium.nifc.pl/islandora/object/pl-gd%3A57883/datastream/PDF/view
!!!URL-scan: https://polish.musicsources.pl/pl/lokalizacje/galeria/klocki-introligatorskie/655 @EN{Scan on Polish Music Sources Website} @PL{Skany w portalu Dziedzictwo Muzyki Polskiej w otwartym dostępie}
!!!ONB-nifc: UWAGA: zbiór na stronach: Canto: s. 637-653, Alto: s. do 486-501, Tenore: s. do 334-349, Bassus: s. do 182-197. Uwaga: utwory podzielone wg tytułów w spisach treści dostępnych na końcu każdej księgi głosowej.
!!!AIN: 1 alto 1 bass 1 soprn 1 tenor
!!!key:
**kern	**text	**kern	**text	**kern	**text	**kern	**text
*part4	*part4	*part3	*part3	*part2	*part2	*part1	*part1
*staff4	*staff4	*staff3	*staff3	*staff2	*staff2	*staff1	*staff1
*I"BASSO	*	*I"TENORE	*	*I"ALTO	*	*I"CANTO	*
*I'B.	*	*I'T.	*	*I'A.	*	*I'C.	*
*Ibass	*	*Itenor	*	*Ialto	*	*Isoprn	*
*ICvox	*	*ICvox	*	*ICvox	*	*ICvox	*
*IG	*	*	*	*	*	*	*
*clefF4	*	*clefC4	*	*clefC3	*	*clefC1	*
*k[b-]	*	*k[b-]	*	*k[b-]	*	*k[b-]	*
*F:	*	*F:	*	*F:	*	*F:	*
*M4/2	*	*M4/2	*	*M4/2	*	*M4/2	*
*met(C)	*	*met(C)	*	*met(C)	*	*met(C)	*
=1-	=1-	=1-	=1-	=1-	=1-	=1-	=1-
!	!	!LO:TX:b:t=DIſſi	!	!	!	!	!
0r	.	0r	.	2r	.	1f	Diſ-
.	.	.	.	1f	Diſ-	.	.
.	.	.	.	.	.	1g	-ſi
.	.	.	.	2e\	-ſi	.	.
=2-	=2-	=2-	=2-	=2-	=2-	=2-	=2-
0r	.	4r	.	4r	.	4r	.
.	.	2F/	A	2f\	à	2a\	à
.	.	4A/	l'a-	4c/	l'a-	4cc\	l'a-
.	.	4G/	-ma-	4d\	-ma-	4b-\	-ma-
.	.	4F/	-ta	4f\	-ta	4a\	-ta
.	.	2c\	mia	2e\	mia	4g/	mia
.	.	.	.	.	.	4.a\	lu-
=3-	=3-	=3-	=3-	=3-	=3-	=3-	=3-
0r	.	4.d\	lu-	4.f\	lu-	.	.
.	.	.	.	.	.	8g/	-ci-
.	.	.	.	.	.	2f/	-da
.	.	8c\	-ci-	8e\	-ci-	.	.
.	.	2B-\	-da	4d\	-da	.	.
.	.	.	.	4.g\	ſtel-	4.b-\	ſtel-
.	.	1c	ſtel-	.	.	.	.
.	.	.	.	8f\	.	8a\	.
.	.	.	.	4.f\	.	8a\	.
.	.	.	.	.	.	16g/	.
.	.	.	.	.	.	16f/	.
!	!	!	!	!	!	!LO:SIC:v:t=custos a	!
.	.	.	.	.	.	2g/	.
!	!	!	!	!	!	!LO:LB:g=original	!
.	.	.	.	16e\	.	.	.
.	.	.	.	16d\	.	.	.
!	!	!	!	!LO:SIC:v:t=custos f	!	!	!
.	.	.	.	4e\	.	.	.
!	!	!	!	!LO:LB:g=original	!	!	!
=4-	=4-	=4-	=4-	=4-	=4-	=4-	=4-
1r	.	1F	-la	2f\	-la	2a\	-la
.	.	.	.	2a\	Che	2cc\	Che
1F	Diſ-	2r	.	4a\	piu	4cc\	più
.	.	.	.	4g\	d'ogn'	4b-\	d'ogn'
.	.	1c\	Diſ-	4f\	al-	4a\	al-
.	.	.	.	4e\	-tra	4a\	-tra
=5-	=5-	=5-	=5-	=5-	=5-	=5-	=5-
1G	-ſi	.	.	1d	lu-	1g	lu-
!	!	!LO:SIC:v:t=custos c	!	!	!	!	!
!	!	!LO:N:acc=#	!	!	!	!	!
.	.	2Bn\	-ſi	.	.	.	.
!	!	!LO:LB:g=original	!	!	!	!	!
4r	.	4r	.	1e	-ce	1g	-ce
2C/	à	2c\	à	.	.	.	.
4E\	l'a-	4G/	l'a-	.	.	.	.
=6-	=6-	=6-	=6-	=6-	=6-	=6-	=6-
4D/	-ma-	4A/	-ma-	4r	.	2r	.
4C/	-ta	4c\	-ta	2g\	à	.	.
!	!	!LO:N:acc=#	!	!	!	!	!
2G\	mia	2Bn\	mia	.	.	1g	Diſ-
.	.	.	.	4d\	l'a-	.	.
1r	.	4.c\	lu-	4e\	-ma-	.	.
.	.	.	.	4g\	-ta	.	.
.	.	8B\	-ci-	.	.	.	.
.	.	4A/	-da	2f#X\	mia	2a\	-ſi
.	.	4.d\	ſtel-	.	.	.	.
=7-	=7-	=7-	=7-	=7-	=7-	=7-	=7-
1G	Diſ-	.	.	4g\	lu-	1r	.
.	.	8c\	.	.	.	.	.
.	.	4.c\	.	8fny\	-ci-	.	.
.	.	.	.	8e\	-da	.	.
.	.	.	.	4.d\	ſtel-	.	.
!	!	!LO:N:acc=#	!	!	!	!	!
.	.	16Bn\	.	.	.	.	.
.	.	16A\	.	.	.	.	.
!	!	!LO:N:acc=#	!	!	!	!	!
.	.	4Bn\	.	.	.	.	.
.	.	.	.	8e\	.	.	.
1A	-ſi	1c	-la	2f\	.	4r	.
.	.	.	.	.	.	2a\	à
.	.	.	.	4.e\	-la	.	.
.	.	.	.	.	.	4cc\	l'a-
!	!	!	!	!LO:SIC:v:t=custos g	!	!	!
.	.	.	.	8f\	.	.	.
!	!	!	!	!LO:LB:g=original	!	!	!
=8-	=8-	=8-	=8-	=8-	=8-	=8-	=8-
4r	.	4r	.	4g\	.	4b-\	-ma-
2F\	à	2A/	à	2c/	à	4a\	-ta
.	.	.	.	.	.	2cc\	mia
!LO:SIC:v:t=custos D	!	!LO:SIC:v:t=custos b-	!	!	!	!	!
4C/	l'a-	4c\	l'a-	4e\	l'a-	.	.
!LO:LB:g=original	!	!LO:LB:g=original	!	!	!	!	!
4D/	-ma-	4B-\	-ma-	4d\	-ma-	1r	.
4F\	-ta	4A/	-ta	4c/	-ta	.	.
2E\	mia	4G/	mia	2g\	imia	.	.
.	.	4.c\	lu-	.	.	.	.
=9-	=9-	=9-	=9-	=9-	=9-	=9-	=9-
4.F\	lu-	.	.	4.a\	lu-	4r	.
.	.	8B-\	-ci-	.	.	.	.
.	.	2A/	-da	.	.	4.f/	lu-
8E\	-ci-	.	.	8g\	-ci-	.	.
2D/	-da	.	.	4f\	-da	.	.
.	.	.	.	.	.	8g/	-ci-
.	.	4.d\	ſtel-	4.f\	ſtel-	4a\	-da
1G	ſtel-	.	.	.	.	1g	ſtel-
.	.	8c\	.	8e\	.	.	.
.	.	4.c\	.	8e\	.	.	.
.	.	.	.	16d\	.	.	.
.	.	.	.	16c\	.	.	.
.	.	.	.	2d\	.	.	.
!	!	!LO:N:acc=#	!	!	!	!	!
.	.	16Bn\	.	.	.	.	.
.	.	16A\	.	.	.	.	.
!	!	!LO:N:acc=#	!	!	!	!	!
.	.	4Bn\	.	.	.	.	.
=10-	=10-	=10-	=10-	=10-	=10-	=10-	=10-
2C/	-la	1c	-la	2e\	-la	2g/	-la
!	!	!	!	!	!	!LO:SIC:v:t=custos a	!
2F\	Che	.	.	2r	.	2a\	Che
!	!	!	!	!	!	!LO:LB:g=original	!
4F\	più	2r	.	2r	.	4a\	piu
4E\	d'ogn'	.	.	.	.	4g/	d'ogn'
4D/	al-	2d\	Che	2f\	Che	4f/	al-
4C/	-tra	.	.	.	.	4e/	-tra
=11-	=11-	=11-	=11-	=11-	=11-	=11-	=11-
*lig	*	*	*	*	*	*	*
1BB-	lu-	4d\	piu	4f\	piu	4d/	lu-
.	.	4c\	d'ogn'	4e\	d'ogn'	4e/	.
.	.	4B-y\	al-	4d\	al-	2.f/	.
.	.	4A/	-tra	4d\	-tra	.	.
!	!	!	!	!LO:SIC:v:t=custos A	!	!	!
1C	.	1G	lu-	1c	lu-	.	.
!	!	!	!	!LO:LB:g=original	!	!	!
.	.	.	.	.	.	8e/	.
.	.	.	.	.	.	8d/	.
.	.	.	.	.	.	2e/	.
*Xlig	*	*	*	*	*	*	*
=12-	=12-	=12-	=12-	=12-	=12-	=12-	=12-
2FF/	-ce	1F	-ce	4A/	-ce	2f/	-ce
.	.	.	.	2c/	Et	.	.
2F\	Et	.	.	.	.	2a\	Et
.	.	.	.	2d\	al	.	.
2G\	al	1r	.	.	.	2b-\	al
.	.	.	.	2e\	mio	.	.
2A\	mio	.	.	.	.	2cc\	mio
.	.	.	.	2f\	cor	.	.
=13-	=13-	=13-	=13-	=13-	=13-	=13-	=13-
2B-\	cor	1r	.	.	.	2dd\	cor
.	.	.	.	2g\	ad-	.	.
!LO:SIC:v:t=custos G	!	!	!	!	!	!	!
2A\	ad-	.	.	.	.	2cc\	ad-
.	.	.	.	2f\	-du-	.	.
!LO:LB:g=original	!	!LO:SIC:v:t=custos A	!	!	!	!	!
1G	-du-	1r	.	.	.	1b-	-du-
!	!	!LO:LB:g=original	!	!	!	!	!
.	.	.	.	8e\	.	.	.
.	.	.	.	8d\	.	.	.
.	.	.	.	2e\	.	.	.
=14-	=14-	=14-	=14-	=14-	=14-	=14-	=14-
4F\	-ce	2r	.	1f	-ce	4a\	-ce
4.F\	Fiam-	.	.	.	.	4.a\	Fiam-
.	.	2A/	Et	.	.	.	.
8E\	.	.	.	.	.	8g/	.
8D/	.	.	.	.	.	8f/	.
!	!	!	!	!	!	!LO:SIC:v:t=custos d	!
8C/	.	.	.	.	.	8e/	.
!	!	!	!	!	!	!LO:LB:g=original	!
4BB-/	.	2B-\	al	1r	.	4d/	.
4B-\	-me	.	.	.	.	4dd\	-me
8A\	ſtra-	2c\	mio	.	.	8cc\	ſtra-
8G\	.	.	.	.	.	8b-\	.
8F\	.	.	.	.	.	8a\	.
8E\	.	.	.	.	.	8g\	.
=15-	=15-	=15-	=15-	=15-	=15-	=15-	=15-
4D/	.	2d\	cor	1r	.	4f/	.
4G\	-li	.	.	.	.	4b-\	li e
4r	.	2c\	ad-	.	.	4g/	ca-
4C/	Et	.	.	.	.	2a\	-te-
2D/	al	1B-	-du-	1r	.	.	.
.	.	.	.	.	.	8g/	.
.	.	.	.	.	.	8f/	.
2E\	mio	.	.	.	.	2g/	.
=16-	=16-	=16-	=16-	=16-	=16-	=16-	=16-
2F\	cor	1A	-ce	1c	Et	4a\	-ne
.	.	.	.	.	.	8g/	.
.	.	.	.	.	.	8f/	.
2A\	ad-	.	.	.	.	4e/	.
.	.	.	.	.	.	4f/	.
1G	-du-	1r	.	2d\	al	8g\	.
.	.	.	.	.	.	8a\	.
.	.	.	.	.	.	2b-\	.
.	.	.	.	2e\	mio	.	.
.	.	.	.	.	.	8a\	.
.	.	.	.	.	.	8g\	.
=17-	=17-	=17-	=17-	=17-	=17-	=17-	=17-
2F\	-ce	4r	.	2f\	cor	2a\	.
.	.	4.c\	Fiam-	.	.	.	.
4r	.	.	.	2e\	ad	4r	.
.	.	8B-\	.	.	.	.	.
!LO:SIC:v:t=custos BB-	!	!	!	!	!	!LO:SIC:v:t=custos d	!
4AA/	Et	8A/	.	.	.	4c/	Et
!LO:LB:g=original	!	!	!	!	!	!LO:LB:g=original	!
.	.	8G/	.	.	.	.	.
2BB-/	al	4F/	.	2d\	du-	2d/	al
.	.	4f\	-me	.	.	.	.
2C/	mio	8e\	ſtra-	2g\	-ce	2e/	mio
.	.	8d\	.	.	.	.	.
.	.	8c\	.	.	.	.	.
.	.	8B-\	.	.	.	.	.
=18-	=18-	=18-	=18-	=18-	=18-	=18-	=18-
2D/	cor	4A/	.	0r	.	2f/	cor
.	.	4F/	li e	.	.	.	.
2C/	ad-	4G/	ca-	.	.	2e/	ad-
.	.	2A/	-te-	.	.	.	.
1BB-	-du-	.	.	.	.	1d	-du-
.	.	8G/	.	.	.	.	.
.	.	8F/	.	.	.	.	.
.	.	2G/	.	.	.	.	.
=19-	=19-	=19-	=19-	=19-	=19-	=19-	=19-
!	!	!LO:SIC:v:t=custos c	!	!	!	!	!
4AA/	-ce	1A	-ne	4r	.	2c/	-ce
!	!	!LO:LB:g=original	!	!	!	!	!
4.A\	Fiam-	.	.	4.c/	Fiam-	.	.
.	.	.	.	.	.	4r	.
8G\	.	.	.	8B-/	.	.	.
8F\	.	.	.	8A/	.	4.f/	Fiam-
!	!	!	!	!LO:SIC:v:t=custos F	!	!	!
8E\	.	.	.	8G/	.	.	.
!	!	!	!	!LO:LB:g=original	!	!	!
4D/	.	1r	.	4F/	.	.	.
.	.	.	.	.	.	8g/	.
4d\	-me	.	.	4f\	-me	8a\	.
.	.	.	.	.	.	8b-\	.
8c\	ſtra-	.	.	8e\	ſtra-	4cc\	.
8B-\	.	.	.	8d\	.	.	.
8A\	.	.	.	8c/	.	4cc\	-me
8G\	.	.	.	8B-/	.	.	.
=20-	=20-	=20-	=20-	=20-	=20-	=20-	=20-
2F\	.	4r	.	4.A/	.	4r	.
.	.	4.c\	Fiam-	.	.	4.a\	Fiam-
.	.	.	.	8B-/	.	.	.
2FF/	li e	.	.	2c/	.	.	.
.	.	8B-\	.	.	.	8g/	.
.	.	8A/	.	.	.	8f/	.
.	.	8G/	.	.	.	8e/	.
2BB-/	ca-	4F/	.	2B-/	-li	4d/	.
.	.	4f\	-me	.	.	4dd\	-me
2C/	-te-	8e\	ſtra-	2r	.	8cc\	ſtra-
.	.	8d\	.	.	.	8b-\	.
.	.	8c\	.	.	.	8a\	.
!	!	!	!	!	!	!LO:SIC:v:t=custos f	!
.	.	8B-\	.	.	.	8g\	.
!	!	!	!	!	!	!LO:LB:g=original	!
=21-	=21-	=21-	=21-	=21-	=21-	=21-	=21-
2D/	-ne	4A/	.	2r	.	4f/	.
.	.	2d\	li e	.	.	4b-\	li e
2r	.	.	.	2f\	e	4a\	ca-
.	.	4B-\	ca-	.	.	4.b-\	-te-
!LO:SIC:v:t=custos F	!	!	!	!	!	!	!
1r	.	1c	-te-	4e\	ca-	.	.
!LO:LB:g=original	!	!	!	!	!	!	!
.	.	.	.	.	.	8a\	.
.	.	.	.	4.f\	-te-	8a\	.
.	.	.	.	.	.	16g/	.
.	.	.	.	.	.	16f/	.
.	.	.	.	.	.	2g/	.
.	.	.	.	16e\	.	.	.
.	.	.	.	16d\	.	.	.
.	.	.	.	4e\	.	.	.
=22-	=22-	=22-	=22-	=22-	=22-	=22-	=22-
2r	.	2F/	-ne	4.f\	.	1a	-ne
.	.	.	.	16e\	.	.	.
.	.	.	.	16d\	.	.	.
2F\	Ch'ogn'	2A/	Ch'ogn'	2c/	-ne	.	.
1F	hor	1c	hor	2r	.	2r	.
.	.	.	.	2f\	Ch'ogn'	2a\	Ch'ogn'
=23-	=23-	=23-	=23-	=23-	=23-	=23-	=23-
!	!	!	!	!LO:SIC:v:t=custos e	!	!	!
2r	.	2r	.	1a	hor	1cc	hor
!	!	!	!	!LO:LB:g=original	!	!	!
*	*ij	*	*ij	*	*	*	*
2F\	Ch'ogn'	2A/	Ch'ogn'	.	.	.	.
1A	hor	1c	hor	4r	.	2r	.
*	*Xij	*	*Xij	*	*	*	*
.	.	.	.	4e\	mi	.	.
.	.	.	.	2f\	dan-	4r	.
.	.	.	.	.	.	4a\	mi
=24-	=24-	=24-	=24-	=24-	=24-	=24-	=24-
1r	.	2r	.	2g\	-no	2b-\	dan-
.	.	4r	.	2a\	pe-	2cc\	-no
!	!	!LO:SIC:v:t=custos B-	!	!	!	!	!
.	.	4A/	mi	.	.	.	.
!	!	!LO:LB:g=original	!	!	!	!	!
2r	.	2B-\	dan-	1g	-ne	2dd\	pe-
4r	.	2c\	-no	.	.	2.cc\	.
4E\	mi	.	.	.	.	.	.
=25-	=25-	=25-	=25-	=25-	=25-	=25-	=25-
2F\	dan-	1d	pe-	1r	.	.	.
.	.	.	.	.	.	8b-\	.
.	.	.	.	.	.	8a\	.
!	!	!	!	!	!	!LO:N:acc=#	!
2G\	-no	.	.	.	.	2bn\	.
0A	pe-	4c\	-ne	2r	.	2cc\	-ne
.	.	4A/	Ch'ogn'	.	.	.	.
.	.	2c\	hor	1e\	mi	4r	.
.	.	.	.	.	.	4a\	Ch'ogn'
=26-	=26-	=26-	=26-	=26-	=26-	=26-	=26-
.	.	4r	.	.	.	2cc\	hor
*	*	*	*ij	*	*	*	*
.	.	4A/	Ch'ogn'	.	.	.	.
.	.	4c\	hor	1f	dan-	2a\	mi
*	*	*	*Xij	*	*	*	*
.	.	4A/	mi	.	.	.	.
!	!	!LO:N:acc=#	!	!	!	!	!
0G	-ne:	2Bn\	dan-	.	.	2dd\	da(n)-
.	.	1c\	-no	2e\	-no	2g/	-no
=27-	=27-	=27-	=27-	=27-	=27-	=27-	=27-
.	.	.	.	1d	pe-	1g	pe-
!	!	!LO:N:acc=#	!	!	!	!	!
.	.	2Bn\	pe-	.	.	.	.
1r	.	1c	-ne	1e	-ne	1g	-ne
=28-	=28-	=28-	=28-	=28-	=28-	=28-	=28-
1.F	Deh	1.c	Deh	1.f	Deh	1a	Deh
.	.	.	.	.	.	4r	.
.	.	.	.	.	.	8a\	mo-
.	.	.	.	.	.	8b-\	-ri-
2r	.	2r	.	4r	.	2cc\	-rò
.	.	.	.	8f\	mo-	.	.
.	.	.	.	8g\	-ri-	.	.
=29-	=29-	=29-	=29-	=29-	=29-	=29-	=29-
1r	.	1r	.	2a\	-rò	4r	.
.	.	.	.	.	.	8a\	mo-
.	.	.	.	.	.	8b-\	-ri-
.	.	.	.	4r	.	2.cc\	-rò
.	.	.	.	8f\	mo-	.	.
.	.	.	.	8g\	-ri-	.	.
1r	.	1r	.	4a\	-rò	.	.
.	.	.	.	4f\	cor	4a\	cor
.	.	.	.	2e\	mi-	2g/	mi-
=30-	=30-	=30-	=30-	=30-	=30-	=30-	=30-
!	!	!	!	!LO:SIC:v:t=custos f	!	!	!
2r	.	2r	.	2f\	-o	2f/	-o
!	!	!	!	!LO:LB:g=original	!	!	!
2F\	ſi	2A/	ſi	2r	.	2r	.
!	!	!	!	!	!	!LO:SIC:v:t=custos e	!
4r	.	4r	.	2f\	ſi	2a\	ſi
!	!	!	!	!	!	!LO:LB:g=original	!
4F\	ſi	4c\	ſi	.	.	.	.
4E\	mo-	4c\	mo-	2r	.	2r	.
!	!	!LO:N:acc=#	!	!	!	!	!
!	!	!LO:SIC:v:t=custos c	!	!	!	!	!
4D/	-ri-	4Bn\	-ri-	.	.	.	.
!	!	!LO:LB:g=original	!	!	!	!	!
=31-	=31-	=31-	=31-	=31-	=31-	=31-	=31-
!LO:SIC:v:t=custos C	!	!	!	!	!	!	!
1C	-rai	1c	-rai	2r	.	4r	.
!LO:LB:g=original	!	!	!	!	!	!	!
.	.	.	.	.	.	8e/	mo-
.	.	.	.	.	.	8f/	-ri-
.	.	.	.	4r	.	2g/	-rò
.	.	.	.	8c/	mo-	.	.
.	.	.	.	8d\	-ri-	.	.
4r	.	4r	.	2e\	-rò	1r	.
4C/	ſi	4G/	ſi	.	.	.	.
4BB-/	mo-	4G/	mo-	2r	.	.	.
4AA/	-ri-	4F#X/	-ri-	.	.	.	.
=32-	=32-	=32-	=32-	=32-	=32-	=32-	=32-
2GG/	-rai	4G/	-rai	2r	.	4r	.
.	.	8G/	mo-	.	.	8b-\	mo-
.	.	8A/	-ri-	.	.	8cc\	-ri-
4r	.	2B-y\	-rò	4r	.	2dd\	-rò
8G\	mo-	.	.	8B-/	mo-	.	.
8A\	-ri-	.	.	8c/	-ri-	.	.
1B-	-rò	4r	.	2d\	-rò	4r	.
.	.	8d\	mo-	.	.	8b-\	mo-
.	.	8e\	-ri-	.	.	8cc\	-ri-
.	.	2f\	-rò	4r	.	2.dd\	-rò
.	.	.	.	8d\	mo-	.	.
.	.	.	.	8e\	-ri-	.	.
=33-	=33-	=33-	=33-	=33-	=33-	=33-	=33-
1r	.	1r	.	4f\	-rò	.	.
.	.	.	.	4d\	cor	4b-\	cor
.	.	.	.	2c/	mi-	2a\	mi-
4r	.	4r	.	2B-/	-o	2b-\	-o
4B-\	ſi	4d\	ſi	.	.	.	.
4A\	mo-	4c\	mo-	2r	.	2r	.
!	!	!LO:N:acc=#	!	!	!	!	!
4G\	-ri-	4Bn\	-ri-	.	.	.	.
=34-	=34-	=34-	=34-	=34-	=34-	=34-	=34-
2F\	-rai	2c\	-rai	2r	.	2r	.
2r	.	2r	.	2f\	ſi	2a\	ſi
2F\	ſi	2A/	ſi	4r	.	4r	.
.	.	.	.	4f\	ſi	4cc\	ſi
2r	.	2r	.	4e\	mo-	4cc\	mo-
!	!	!	!	!LO:SIC:v:t=custos c	!	!LO:N:acc=#	!
.	.	.	.	4d\	-ri-	4bn\	-ri-
!	!	!	!	!LO:LB:g=original	!	!	!
=35-	=35-	=35-	=35-	=35-	=35-	=35-	=35-
2r	.	2r	.	2c/	-rai	2cc\	-rai
!	!	!	!	!	!	!LO:SIC:v:t=custos g	!
2C/	ma	2c\	ma	2e\	ma	2g/	ma
!	!	!	!	!	!	!LO:LB:g=original	!
2.C/	non	2.c\	non	2.e\	non	2.g/	non
!	!	!LO:SIC:v:t=custos B-	!	!	!	!	!
4AA/	per	4c\	per	4f\	per	4a\	per
!	!	!LO:LB:g=original	!	!	!	!	!
=36-	=36-	=36-	=36-	=36-	=36-	=36-	=36-
2BB-/	mio	2B-\	mio	2f\	mio	4d/	mio
.	.	.	.	.	.	4e/	de-
2D/	de-	2A/	de-	2F/	de-	2.f/	-ſi-
!LO:SIC:v:t=custos FF	!	!	!	!	!	!	!
1C	-ſi-	1c	-ſi-	1G	-ſi-	.	.
!LO:LB:g=original	!	!	!	!	!	!	!
.	.	.	.	.	.	8e/	.
.	.	.	.	.	.	8d/	.
.	.	.	.	.	.	2e/	.
=37-	=37-	=37-	=37-	=37-	=37-	=37-	=37-
2FF/	-o	2c\	-o	2A/	-o	2f/	-o
2r	.	2r	.	2f\	ſi	2a\	ſi
2F\	ſi	2A/	ſi	4r	.	4r	.
.	.	.	.	4f\	ſi	4cc\	ſi
2r	.	2r	.	4e\	mo-	4cc\	mo-
!	!	!	!	!	!	!LO:N:acc=#	!
.	.	.	.	4d\	-ri-	4bn\	-ri-
=38-	=38-	=38-	=38-	=38-	=38-	=38-	=38-
2r	.	2r	.	2c/	-rai	2cc\	-rai
2C/	ma	2c\	ma	2e\	ma	2g/	ma
2.C/	non	2.c\	non	2.e\	non	2.g/	non
4AA/	per	4c\	per	4f\	per	4a\	per
=39-	=39-	=39-	=39-	=39-	=39-	=39-	=39-
2BB-/	mio	2B-\	mio	2f\	mio	4d/	mio
.	.	.	.	.	.	4e/	de-
2D/	de-	2A/	de-	2F/	de-	2.f/	-ſi-
1C	-ſi-	1c	-ſi-	1G	-ſi-	.	.
.	.	.	.	.	.	8e/	.
.	.	.	.	.	.	8d/	.
.	.	.	.	.	.	2e/	.
=40-	=40-	=40-	=40-	=40-	=40-	=40-	=40-
0FF	-o.	0c	-o.	0A	-o.	0f	-o.
=-	=-	=-	=-	=-	=-	=-	=-
*-	*-	*-	*-	*-	*-	*-	*-
!!!system-decoration: [(s1,s2,s3,s4)]
!!!ENC: Mateusz Solarz
!!!END: 2022-06-25
!!!ENC: Julita Ruszuk
!!!END: 2022-07-08
